X:37
T:St. Anne's Reel
Z:abc-transcription Josh Larios <hades@elsewhere.org>, 2017.02.14
Z:abc-copyright This transcription is licensed under a Creative Commons Attribution-ShareAlike 4.0 International License.
G:Key: D
M:C|
K:D
[P:A]y0|: e2 | "D"f2 fg fe dB | A2 F2 F2 A2 | "G"B2 G2 G2 B2 | "D"A2 F2 F2 e2 |
"D"f2 fg fe dB | A2 F2 F2 A2 | "G"BG Bd "A"cd ec | "D"d2 d2 d2 :|
[P:B]y0|: ag |"D"f2 f2 fe fg | "Em"a2 g2 g2 gf | "A"ed cB Ac eg | "D"b2 a2 a2 ag |
"D"f2 f2 fe fg | "Em"a2 g2 g2 gf | "A"ed cB Ac ea | "D"f2 d2 d2 :|

